app/assets/v2/images/avatar/Accessories/Extras-tattoo.svg

<svg width="899" height="1415" xmlns="http://www.w3.org/2000/svg"><g fill="#333" fill-rule="evenodd" stroke="#333"><path d="M449.5 389l80.5-82H369zm0 519l80.5 82H369zm221-586L598 434h145zm-442 0L301 434H156zm28 594L329 804H184z"/><path d="M632.6 621.5h102.9m-102.9 53h102.9m-102.9-111h102.9m-565.9 49h102.9m-102.9 53h102.9m-102.9-111h102.9" stroke-width="25"/><path d="M651.5 916L579 804h145z"/></g></svg>

<svg width="899" height="1415" xmlns="http://www.w3.org/2000/svg"><g fill="#333" fill-rule="evenodd" stroke="#333"><path d="M449.5 389l80.5-82H369zM449.5 908l80.5 82H369zM670.5 322L598 434h145zM228.5 322L301 434H156zM256.5 916L329 804H184z"/><path d="M632.6 621.5h102.9M632.6 674.5h102.9M632.6 563.5h102.9M169.6 612.5h102.9M169.6 665.5h102.9M169.6 554.5h102.9" stroke-width="25"/><path d="M651.5 916L579 804h145z"/></g></svg>
